resources/modules/editor/src/svgs/table.svg

<!-- Generated by IcoMoon.io -->
<svg version="1.1" xmlns="http://www.w3.org/2000/svg" width="32" height="32" viewBox="0 0 32 32">
<title>table</title>
<path d="M31.328 4h-30.656c-0.384 0-0.672 0.288-0.672 0.672v22.656c0 0.384 0.288 0.672 0.672 0.672h30.656c0.384 0 0.672-0.288 0.672-0.672v-22.656c0-0.384-0.288-0.672-0.672-0.672zM12.064 21.344v-4h7.936v4h-7.936zM20 22.656v4h-7.936v-4h7.936zM20 12v4h-7.936v-4h7.936zM21.344 12h9.312v4h-9.312v-4zM10.72 16h-9.376v-4h9.376v4zM1.344 17.344h9.376v4h-9.376v-4zM21.344 17.344h9.312v4h-9.312v-4zM30.656 5.344v5.312h-29.312v-5.312h29.312zM1.344 22.656h9.376v4h-9.376v-4zM21.344 26.656v-4h9.312v4h-9.312z"></path>
</svg>

<svg width="32" height="32" viewBox="0 0 32 32" fill="none" xmlns="http://www.w3.org/2000/svg">
<path d="M31.328 4H0.672C0.288 4 0 4.288 0 4.672V27.328C0 27.712 0.288 28 0.672 28H31.328C31.712 28 32 27.712 32 27.328V4.672C32 4.288 31.712 4 31.328 4V4ZM12.064 21.344V17.344H20V21.344H12.064ZM20 22.656V26.656H12.064V22.656H20ZM20 12V16H12.064V12H20ZM21.344 12H30.656V16H21.344V12ZM10.72 16H1.344V12H10.72V16ZM1.344 17.344H10.72V21.344H1.344V17.344V17.344ZM21.344 17.344H30.656V21.344H21.344V17.344ZM30.656 5.344V10.656H1.344V5.344H30.656ZM1.344 22.656H10.72V26.656H1.344V22.656V22.656ZM21.344 26.656V22.656H30.656V26.656H21.344Z" fill="black"/>
</svg>
